X: 1
T: la P\^echeuse  (F17)
C:
R: reel
S: Fiddle Hell Online 2021-5-13
Z: 2021 John Chambers <jc:trillian.mit.edu>
N: Odd shift of barlines in part C fixed by making it all M:2/4.
M: 2/4
L: 1/16
K: D
"^A"|: (vf2a2) uf2d2 | vefge f2d2 | f2a2 f2d2 | vegec [1 d4 :|2 ud2fg |]
"^B"[| va2(fa) b2a2 | vg2f2 e3(uf/g/) | va2f2  b2a2 | g2f2 e(e- "^C"|] .f2.d2) vd2(ef) |
vgagf e3(ug | f2d2) vedcB | vA3(e .f2.d2) | vd2(uef ) vga(gf) | ve3(ug f2vd2) e2c2 ud4 |]

